X:228
T:Nina
M:3/4
C:Cyrille Brotto
K:Ador
"Am"ec Bc ec |Bc A4 |"Bm"Bc BG EG |"Em"Bc BG (3EGB |
"Am"ec Bc ec | Bc A4 |"Dm"zA de- ec |"Em"B6 :|
|:"Am"AB ce- ec |Bc ge- e2 |"Em"Bc dg- gf |ef gB- B2 |
"Am"AB ce- e2 |Bc ge- ec |"Em"Bc dg- gf |1ed ef B2 :|2 e6 |]

%%newpage
